src/assets/images/icon_help.svg

<svg width="16" height="16" viewBox="0 0 16 16" fill="none" xmlns="http://www.w3.org/2000/svg">
<g id="help ">
<path id="Vector" d="M8.0026 1.33301C4.32663 1.33301 1.33594 4.3237 1.33594 7.99967C1.33594 11.6757 4.32663 14.6663 8.0026 14.6663C11.6786 14.6663 14.6693 11.6757 14.6693 7.99967C14.6693 4.3237 11.6786 1.33301 8.0026 1.33301ZM8.0026 2.33301C11.1381 2.33301 13.6693 4.86414 13.6693 7.99967C13.6693 11.1352 11.1381 13.6663 8.0026 13.6663C4.86707 13.6663 2.33594 11.1352 2.33594 7.99967C2.33594 4.86414 4.86707 2.33301 8.0026 2.33301ZM8.0026 4.33301C6.9026 4.33301 6.0026 5.23301 6.0026 6.33301V6.49967C6.00167 6.56593 6.01391 6.63171 6.03862 6.6932C6.06332 6.75468 6.1 6.81064 6.14652 6.85783C6.19305 6.90501 6.24848 6.94248 6.30961 6.96805C6.37074 6.99363 6.43634 7.0068 6.5026 7.0068C6.56887 7.0068 6.63447 6.99363 6.6956 6.96805C6.75673 6.94248 6.81216 6.90501 6.85868 6.85783C6.90521 6.81064 6.94189 6.75468 6.96659 6.6932C6.9913 6.63171 7.00354 6.56593 7.0026 6.49967V6.33301C7.0026 5.76634 7.43594 5.33301 8.0026 5.33301C8.56927 5.33301 9.0026 5.76634 9.0026 6.33301C9.0026 7.11331 8.79799 7.21419 8.44271 7.49447C8.26507 7.63461 8.03302 7.79555 7.83398 8.06608C7.63495 8.33662 7.5026 8.71445 7.5026 9.16634C7.50167 9.2326 7.51391 9.29838 7.53862 9.35986C7.56332 9.42135 7.6 9.47731 7.64652 9.52449C7.69305 9.57168 7.74848 9.60915 7.80961 9.63472C7.87074 9.66029 7.93634 9.67346 8.0026 9.67346C8.06887 9.67346 8.13447 9.66029 8.1956 9.63472C8.25673 9.60915 8.31216 9.57168 8.35868 9.52449C8.40521 9.47731 8.44189 9.42135 8.46659 9.35986C8.4913 9.29838 8.50354 9.2326 8.5026 9.16634C8.5026 8.8849 8.55776 8.77094 8.63997 8.65918C8.72219 8.54742 8.86514 8.43532 9.0625 8.27962C9.45722 7.96824 10.0026 7.38604 10.0026 6.33301C10.0026 5.23301 9.1026 4.33301 8.0026 4.33301ZM8.0026 10.6663C7.82579 10.6663 7.65622 10.7366 7.5312 10.8616C7.40618 10.9866 7.33594 11.1562 7.33594 11.333C7.33594 11.5098 7.40618 11.6794 7.5312 11.8044C7.65622 11.9294 7.82579 11.9997 8.0026 11.9997C8.17942 11.9997 8.34898 11.9294 8.47401 11.8044C8.59903 11.6794 8.66927 11.5098 8.66927 11.333C8.66927 11.1562 8.59903 10.9866 8.47401 10.8616C8.34898 10.7366 8.17942 10.6663 8.0026 10.6663Z" fill="#475664"/>
</g>
</svg>

<svg xmlns="http://www.w3.org/2000/svg" width="16" height="16" fill="none"><path fill="#475664" d="M8.003 1.333A6.674 6.674 0 0 0 1.336 8a6.674 6.674 0 0 0 6.667 6.666A6.674 6.674 0 0 0 14.669 8a6.674 6.674 0 0 0-6.666-6.667m0 1A5.66 5.66 0 0 1 13.669 8a5.66 5.66 0 0 1-5.666 5.666A5.66 5.66 0 0 1 2.336 8a5.66 5.66 0 0 1 5.667-5.667m0 2c-1.1 0-2 .9-2 2V6.5a.5.5 0 1 0 1 0v-.167c0-.567.433-1 1-1 .566 0 1 .433 1 1 0 .78-.205.881-.56 1.161-.178.14-.41.302-.609.572s-.331.648-.331 1.1a.5.5 0 1 0 1 0c0-.281.055-.395.137-.507s.225-.224.422-.38c.395-.31.94-.893.94-1.946 0-1.1-.9-2-2-2m0 6.333a.667.667 0 1 0 0 1.334.667.667 0 0 0 0-1.334"/></svg>
